X:1
T:Title
%%score { ( 1 3 ) | ( 2 4 ) }
L:1/8
M:4/4
K:C
V:1 treble nm="Grand Piano"
V:3 treble 
V:2 bass 
V:4 bass 
V:1
 z4 z2[Q:1/4=100] CE | [EG]2 [EG]2 FEDC | A2 c4 [GB][FA] | [EG]2 [EG]2 [FA][EG][DF][CE] | %4
 [CE]2 [B,D]4 CE | [EG]2 [EG]2 FEDC | A2 c4 BA | G c3 d2 [DB]2 |[M:3/4] [Ec]6 |[M:1/4] Gc | %10
[M:4/4] z d3 z4 | [Ge]6 cB | z c3 z4 | [Gd]6 z2 | [Ec]2 [EG]2 FEDC | A2 c4 BA | G c3 d2 [DB]2 | %17
[M:3/4] [Ec]6 |] %18
V:2
 z4 z2 [C,E,][C,G,C] | [C,C]2 [C,_B,]2 [C,A,C][C,G,C][C,F,=B,][C,E,] | %2
 [F,C]2 [F,A,F]4 [F,B,][F,C] | [C,C]2 [C,C]2 [C,C][C,C][C,G,][C,G,] | %4
 [G,,G,]2 [G,,G,]4 [C,E,][C,G,C] | [C,C]2 [C,_B,]2 [C,A,C][C,G,C][C,F,=B,][C,E,] | %6
 [F,C]2[K:treble] [F,A,F]4 [F,B,G][F,CF] | [G,CE] [G,E]3 [G,B,F]2[K:bass] [G,,G,]2 | %8
[M:3/4] [C,G,]6 |[M:1/4] EE |[M:4/4] z[K:treble] F3 z4[K:bass] | CC[K:treble]CC C2 EG | %12
 z A3[K:bass] z4 | [G,B,]G,G,G, G,2[K:treble] [G,B,G][G,B,F] | %14
 [C,C]2 [C,_B,]2 [C,A,C][C,G,C][C,F,=B,][C,E,] | [F,C]2[K:treble] [F,A,F]4 [F,B,G][F,CF] | %16
 [G,CE] [G,E]3 [G,B,F]2[K:bass] [G,,G,]2 |[M:3/4] [C,G,]6 |] %18
V:3
 x8 | x8 | x8 | x8 | x8 | x8 | x8 | x8 |[M:3/4] x6 |[M:1/4] x2 |[M:4/4] .B2 B,B, d[GB][Gc][Gd] | %11
 x8 | .A2 CA, [^Fc][Fc][Fd][Fe] | z B,B,B, B,2 ed | x8 | x8 | x8 |[M:3/4] x6 |] %18
V:4
 x8 | x8 | x8 | x8 | x8 | x8 | x2[K:treble] x6 | x6[K:bass] x2 |[M:3/4] x6 |[M:1/4] x2 | %10
[M:4/4] .D2[K:treble] G,G, [G,B,G][K:bass][F,D][E,C][G,B,] | x2[K:treble] x6 | %12
 .F2[K:bass] F,F, [D,A,][D,A,][D,B,][D,C] | x6[K:treble] x2 | x8 | x2[K:treble] x6 | %16
 x6[K:bass] x2 |[M:3/4] x6 |] %18

